**harmony	**harte	**kern	**silbe	**rhyme	**timestamp	**phrase
*M4/4	*M4/4	*ICvox	*	*	*	*
*	*	*VRlead	*	*	*	*
*	*	*Hstimme	*	*	*	*
*E-:	*E-:	*E-:	*	*	*	*
*	*	*M4/4	*	*	*	*
*	*	*clefF4	*	*	*	*
1r;	1r	r;	.	.	0	.
=1	=1	=1	=1	=1	=1	=1
*>Letter>A	*>Letter>A	*>Letter>A	*>Letter>A	*>Letter>A	*>Letter>A	*>Letter>A
*>Label>Intro	*>Label>Intro	*>Label>Intro	*>Label>Intro	*>Label>Intro	*>Label>Intro	*>Label>Intro
1E-M	E-:maj	1r	.	.	0.789	newline
=2	=2	=2	=2	=2	=2	=2
1E-M	E-:maj	1r	.	.	2.02	.
=3	=3	=3	=3	=3	=3	=3
1E-M	E-:maj	1r	.	.	3.251	newline
=4	=4	=4	=4	=4	=4	=4
1E-M	E-:maj	1r	.	.	4.777	.
=5	=5	=5	=5	=5	=5	=5
1E-M	E-:maj	1r	.	.	6.304	.
=6	=6	=6	=6	=6	=6	=6
1E-M	E-:maj	1r	.	.	7.83	.
=7	=7	=7	=7	=7	=7	=7
1E-M	E-:maj	1r	.	.	9.357	newline
=8	=8	=8	=8	=8	=8	=8
1E-M	E-:maj	1r	.	.	11.022	.
=9	=9	=9	=9	=9	=9	=9
1E-M	E-:maj	1r	.	.	12.687	.
=10	=10	=10	=10	=10	=10	=10
1E-M	E-:maj	1r	.	.	14.352	.
=11	=11	=11	=11	=11	=11	=11
1E-M	E-:maj	1r	.	.	16.017	newline
=12	=12	=12	=12	=12	=12	=12
1E-M	E-:maj	1r	.	.	17.719	.
=13	=13	=13	=13	=13	=13	=13
1E-M	E-:maj	1r	.	.	19.421	.
=14	=14	=14	=14	=14	=14	=14
1E-M	E-:maj	1r	.	.	21.123	.
=15	=15	=15	=15	=15	=15	=15
1E-M	E-:maj	1r	.	.	22.825	newline
=16	=16	=16	=16	=16	=16	=16
1E-M	E-:maj	1r	.	.	24.532	.
=17	=17	=17	=17	=17	=17	=17
1Gm	G:min	1r	.	.	26.239	.
=18	=18	=18	=18	=18	=18	=18
1Gm	G:min	1r	.	.	27.945	.
=19	=19	=19	=19	=19	=19	=19
1E-M	E-:maj	1r	.	.	29.652	newline
=20	=20	=20	=20	=20	=20	=20
1E-M	E-:maj	1r	.	.	31.364	.
=21	=21	=21	=21	=21	=21	=21
1Gm	G:min	1r	.	.	33.077	.
=22	=22	=22	=22	=22	=22	=22
1Gm	G:min	1r	.	.	34.789	.
=23	=23	=23	=23	=23	=23	=23
*>Letter>B	*>Letter>B	*>Letter>B	*>Letter>B	*>Letter>B	*>Letter>B	*>Letter>B
*>Label>Verse	*>Label>Verse	*>Label>Verse	*>Label>Verse	*>Label>Verse	*>Label>Verse	*>Label>Verse
1E-M	E-:maj	4r	.	.	36.502	newline
.	.	4B-	Young	.	.	.
.	.	4A	tea-	.	.	.
.	.	4F	-cher	.	.	.
=24	=24	=24	=24	=24	=24	=24
1E-M	E-:maj	4r	.	.	38.208	.
.	.	4B-	the	.	.	.
.	.	4A	sub-	.	.	.
.	.	4F	-ject	.	.	.
=25	=25	=25	=25	=25	=25	=25
1Gm	G:min	4r	.	.	39.913	.
.	.	4B-	of	.	.	.
.	.	4A	school-	.	.	.
.	.	4F	-girl	.	.	.
=26	=26	=26	=26	=26	=26	=26
1Gm	G:min	4D	fan-	.	41.619	.
.	.	8G	-ta-	.	.	.
.	.	4.G	-sy	A	.	.
.	.	4r	.	.	.	.
=27	=27	=27	=27	=27	=27	=27
1E-M	E-:maj	4r	.	.	43.325	newline
.	.	4B-	She	.	.	.
.	.	4A	wants	.	.	.
.	.	4F	him	.	.	.
=28	=28	=28	=28	=28	=28	=28
1E-M	E-:maj	4r	.	.	45.03	.
.	.	4B-	so	.	.	.
.	.	4A	bad-	.	.	.
.	.	4F	-ly	.	.	.
=29	=29	=29	=29	=29	=29	=29
1Gm	G:min	4r	.	.	46.734	.
.	.	4B-	Knows	.	.	.
.	.	4A	what	.	.	.
.	.	4F	she	.	.	.
=30	=30	=30	=30	=30	=30	=30
1Gm	G:min	4D	wants	.	48.438	.
.	.	8G	to	.	.	.
.	.	4.G	be	A	.	.
.	.	4r	.	.	.	.
=31	=31	=31	=31	=31	=31	=31
1E-M	E-:maj	4r	.	.	50.143	newline
.	.	4B-	In-	.	.	.
.	.	4A	-side	.	.	.
.	.	4F	her	.	.	.
=32	=32	=32	=32	=32	=32	=32
1E-M	E-:maj	4r	.	.	51.841	.
.	.	4B-	there's	.	.	.
.	.	4A	long-	.	.	.
.	.	4F	-ing	.	.	.
=33	=33	=33	=33	=33	=33	=33
1Gm	G:min	4r	.	.	53.539	.
.	.	4B-	This	.	.	.
.	.	4A	girl's	.	.	.
.	.	4F	an	.	.	.
=34	=34	=34	=34	=34	=34	=34
1Gm	G:min	4D	o-	.	55.237	.
.	.	4.G	-pen	.	.	.
.	.	4.G	page	B	.	.
=35	=35	=35	=35	=35	=35	=35
1E-M	E-:maj	4r	.	.	56.935	newline
.	.	4B-	Book	.	.	.
.	.	4A	mark-	.	.	.
.	.	4F	-ing	.	.	.
=36	=36	=36	=36	=36	=36	=36
1E-M	E-:maj	8r	.	.	58.645	.
.	.	8F	she's	.	.	.
.	.	4B-	so	.	.	.
.	.	4A	close	.	.	.
.	.	4F	now	.	.	.
=37	=37	=37	=37	=37	=37	=37
1Gm	G:min	4r	.	.	60.354	.
.	.	4B-	This	.	.	.
.	.	4A	girl	.	.	.
.	.	4F	is	.	.	.
=38	=38	=38	=38	=38	=38	=38
1Gm	G:min	4D	half	.	62.064	.
.	.	8G	his	.	.	.
.	.	4.G	age	B	.	.
.	.	4r	.	.	.	.
=39	=39	=39	=39	=39	=39	=39
*>Letter>C	*>Letter>C	*>Letter>C	*>Letter>C	*>Letter>C	*>Letter>C	*>Letter>C
*>Label>Chorus	*>Label>Chorus	*>Label>Chorus	*>Label>Chorus	*>Label>Chorus	*>Label>Chorus	*>Label>Chorus
*	*	*clefG2	*	*	*	*
*D:	*D:	*D:	*	*	*	*
2DM	D:maj	4r	.	.	63.773	newline
.	.	4a	Don't	.	.	.
2AM	A:maj	4a	stand	.	64.628	.
.	.	4r	.	.	.	.
=40	=40	=40	=40	=40	=40	=40
2DM	D:maj	4r	.	.	65.483	.
.	.	4a	Don't	.	.	.
2AM	A:maj	4a	stand	.	66.337	.
.	.	8f#	so	.	.	.
.	.	8r	.	.	.	.
=41	=41	=41	=41	=41	=41	=41
2Bmm	B:min7	4r	.	.	67.192	.
.	.	4a	Don't	.	.	.
2Bmm	B:min7/b7	4a	stand	.	68.047	.
.	.	4f#	so	.	.	.
=42	=42	=42	=42	=42	=42	=42
2DM	D:maj/5	4d	close	.	68.901	.
.	.	8e	to	.	.	.
.	.	4.f#	me	.	.	.
2AM	A:maj	.	.	.	69.756	.
.	.	4r	.	.	.	.
=43	=43	=43	=43	=43	=43	=43
2DM	D:maj	4r	.	.	70.611	newline
.	.	4a	Don't	.	.	.
2AM	A:maj	4a	stand	.	71.465	.
.	.	4r	.	.	.	.
=44	=44	=44	=44	=44	=44	=44
2DM	D:maj	4r	.	.	72.32	.
.	.	4a	Don't	.	.	.
2AM	A:maj	4a	stand	.	73.175	.
.	.	8f#	so	.	.	.
.	.	8r	.	.	.	.
=45	=45	=45	=45	=45	=45	=45
2Bmm	B:min7	4r	.	.	74.029	.
.	.	4a	Don't	.	.	.
2Bmm	B:min7/b7	4a	stand	.	74.884	.
.	.	4f#	so	.	.	.
=46	=46	=46	=46	=46	=46	=46
2DM	D:maj/5	4d	close	.	75.738	.
.	.	8e	to	.	.	.
.	.	4.f#	me	.	.	.
2AM	A:maj	.	.	.	76.593	.
.	.	4r	.	.	.	.
=47	=47	=47	=47	=47	=47	=47
2DM	D:maj/5	1r	.	.	77.448	.
2AM	A:maj	.	.	.	78.302	.
=48	=48	=48	=48	=48	=48	=48
*>Letter>B	*>Letter>B	*>Letter>B	*>Letter>B	*>Letter>B	*>Letter>B	*>Letter>B
*>Label>Verse	*>Label>Verse	*>Label>Verse	*>Label>Verse	*>Label>Verse	*>Label>Verse	*>Label>Verse
*E-:	*E-:	*E-:	*	*	*	*
1E-M	E-:maj	8r	.	.	79.157	newline
.	.	4b-	Her	.	.	.
.	.	4a	friends	.	.	.
.	.	4.f	are	.	.	.
=49	=49	=49	=49	=49	=49	=49
1E-M	E-:maj	4r	.	.	80.864	.
.	.	4b-	so	.	.	.
.	.	4a	jea-	.	.	.
.	.	8f	-lous	.	.	.
.	.	8r	.	.	.	.
=50	=50	=50	=50	=50	=50	=50
1Gm	G:min	4r	.	.	82.571	.
.	.	4b-	You	.	.	.
.	.	4a	know	.	.	.
.	.	4f	how	.	.	.
=51	=51	=51	=51	=51	=51	=51
1Gm	G:min	4d	bad	.	84.279	.
.	.	4.g	girls	.	.	.
.	.	4g	get	C	.	.
.	.	8r	.	.	.	.
=52	=52	=52	=52	=52	=52	=52
1E-M	E-:maj	4r	.	.	85.986	newline
.	.	4b-	Some-	.	.	.
.	.	4a	-times	.	.	.
.	.	4f	it's	.	.	.
=53	=53	=53	=53	=53	=53	=53
1E-M	E-:maj	4g	not	.	87.68	.
.	.	4b-	so	.	.	.
.	.	4a	ea-	.	.	.
.	.	8f	-sy	.	.	.
.	.	8r	.	.	.	.
=54	=54	=54	=54	=54	=54	=54
1Gm	G:min	4r	.	.	89.375	.
.	.	4b-	to	.	.	.
.	.	4a	be	.	.	.
.	.	4f	the	.	.	.
=55	=55	=55	=55	=55	=55	=55
1Gm	G:min	4d	teach-	.	91.069	.
.	.	4.g	-er's	.	.	.
.	.	8g	pet	C	.	.
.	.	4r	.	.	.	.
=56	=56	=56	=56	=56	=56	=56
1E-M	E-:maj	4r	.	.	92.764	newline
.	.	4b-	Temp-	.	.	.
.	.	4a	-ta-	(D	.	.
.	.	8f	-tion	d)	.	.
.	.	8r	.	.	.	.
=57	=57	=57	=57	=57	=57	=57
1E-M	E-:maj	4r	.	.	94.476	.
.	.	4b-	Frus-	.	.	.
.	.	4a	-tra-	(D	.	.
.	.	8f	-tion	d)	.	.
.	.	8r	.	.	.	.
=58	=58	=58	=58	=58	=58	=58
1Gm	G:min	4r	.	.	96.188	.
.	.	4b-	so	.	.	.
.	.	4a	bad	.	.	.
.	.	4f	it	.	.	.
=59	=59	=59	=59	=59	=59	=59
1Gm	G:min	4d	makes	.	97.9	.
.	.	4.g	him	.	.	.
.	.	4.g	cry	E	.	.
=60	=60	=60	=60	=60	=60	=60
1E-M	E-:maj	4r	.	.	99.612	newline
.	.	4b-	Wet	.	.	.
.	.	4a	bus	.	.	.
.	.	8f	stop	.	.	.
.	.	8r	.	.	.	.
=61	=61	=61	=61	=61	=61	=61
1E-M	E-:maj	4r	.	.	101.314	.
.	.	4b-	She's	.	.	.
.	.	4a	wai-	.	.	.
.	.	4f	-ting	.	.	.
=62	=62	=62	=62	=62	=62	=62
1Gm	G:min	4r	.	.	103.017	.
.	.	4b-	His	.	.	.
.	.	4a	car	.	.	.
.	.	4f	is	.	.	.
=63	=63	=63	=63	=63	=63	=63
1Gm	G:min	4d	warm	.	104.72	.
.	.	4.g	and	.	.	.
.	.	4.g	dry	E	.	.
=64	=64	=64	=64	=64	=64	=64
*>Letter>C	*>Letter>C	*>Letter>C	*>Letter>C	*>Letter>C	*>Letter>C	*>Letter>C
*>Label>Chorus	*>Label>Chorus	*>Label>Chorus	*>Label>Chorus	*>Label>Chorus	*>Label>Chorus	*>Label>Chorus
*D:	*D:	*D:	*	*	*	*
2DM	D:maj	4r	.	.	106.422	newline
.	.	4a	Don't	.	.	.
2AM	A:maj	4a	stand	.	107.279	.
.	.	4r	.	.	.	.
=65	=65	=65	=65	=65	=65	=65
2DM	D:maj	4r	.	.	108.136	.
.	.	4a	Don't	.	.	.
2AM	A:maj	4a	stand	.	108.993	.
.	.	8f#	so	.	.	.
.	.	8r	.	.	.	.
=66	=66	=66	=66	=66	=66	=66
2Bmm	B:min7	4r	.	.	109.849	.
.	.	4a	Don't	.	.	.
2Bmm	B:min7/b7	4a	stand	.	110.706	.
.	.	4f#	so	.	.	.
=67	=67	=67	=67	=67	=67	=67
2DM	D:maj/5	4d	close	.	111.563	.
.	.	8e	to	.	.	.
.	.	4.f#	me	.	.	.
2AM	A:maj	.	.	.	112.42	.
.	.	4r	.	.	.	.
=68	=68	=68	=68	=68	=68	=68
2DM	D:maj	4r	.	.	113.276	newline
.	.	4a	Don't	.	.	.
2AM	A:maj	4a	stand	.	114.13	.
.	.	4r	.	.	.	.
=69	=69	=69	=69	=69	=69	=69
2DM	D:maj	4r	.	.	114.984	.
.	.	4a	Don't	.	.	.
2AM	A:maj	4a	stand	.	115.837	.
.	.	8f#	so	.	.	.
.	.	8r	.	.	.	.
=70	=70	=70	=70	=70	=70	=70
2Bmm	B:min7	4r	.	.	116.691	.
.	.	4a	Don't	.	.	.
2Bmm	B:min7/b7	4a	stand	.	117.544	.
.	.	4f#	so	.	.	.
=71	=71	=71	=71	=71	=71	=71
2DM	D:maj/5	4d	close	.	118.398	.
.	.	8e	to	.	.	.
.	.	4.f#	me	.	.	.
2AM	A:maj	.	.	.	119.252	.
.	.	4r	.	.	.	.
=72	=72	=72	=72	=72	=72	=72
2DM	D:maj/5	1r	.	.	120.105	.
2AM	A:maj	.	.	.	120.959	.
=73	=73	=73	=73	=73	=73	=73
*>Letter>B	*>Letter>B	*>Letter>B	*>Letter>B	*>Letter>B	*>Letter>B	*>Letter>B
*>Label>Verse	*>Label>Verse	*>Label>Verse	*>Label>Verse	*>Label>Verse	*>Label>Verse	*>Label>Verse
*E-:	*E-:	*E-:	*	*	*	*
1E-M	E-:maj	8r	.	.	121.812	newline
.	.	4b-	Loose	.	.	.
.	.	4a	talk	.	.	.
.	.	4.f	in	.	.	.
=74	=74	=74	=74	=74	=74	=74
1E-M	E-:maj	4r	.	.	123.523	.
.	.	4b-	the	.	.	.
.	.	4a	class-	F	.	.
.	.	4f	-room	.	.	.
=75	=75	=75	=75	=75	=75	=75
1Gm	G:min	4r	.	.	125.234	.
.	.	4b-	To	.	.	.
.	.	4a	hurt	.	.	.
.	.	4f	they	.	.	.
=76	=76	=76	=76	=76	=76	=76
1Gm	G:min	4d	try	.	126.944	.
.	.	4.g	and	.	.	.
.	.	4.g	try	E	.	.
=77	=77	=77	=77	=77	=77	=77
1E-M	E-:maj	4r	.	.	128.655	newline
.	.	4b-	Strong	.	.	.
.	.	4a	words	.	.	.
.	.	4f	in	.	.	.
=78	=78	=78	=78	=78	=78	=78
1E-M	E-:maj	4r	.	.	130.356	.
.	.	4b-	the	.	.	.
.	.	4a	staff-	f	.	.
.	.	4f	-room	.	.	.
=79	=79	=79	=79	=79	=79	=79
1Gm	G:min	4r	.	.	132.057	.
.	.	4b-	The	.	.	.
.	.	4a	acc-	.	.	.
.	.	4f	-u-	.	.	.
=80	=80	=80	=80	=80	=80	=80
1Gm	G:min	4d	-sa-	.	133.759	.
.	.	4.g	-tions	.	.	.
.	.	4.g	fly	E	.	.
=81	=81	=81	=81	=81	=81	=81
1E-M	E-:maj	4r	.	.	135.46	newline
.	.	4b-	It's	.	.	.
.	.	4a	no	.	.	.
.	.	4f	use	.	.	.
=82	=82	=82	=82	=82	=82	=82
1E-M	E-:maj	4r	.	.	137.165	.
.	.	4b-	He	.	.	.
.	.	4a	sees	.	.	.
.	.	8f	her	.	.	.
.	.	8r	.	.	.	.
=83	=83	=83	=83	=83	=83	=83
1Gm	G:min	4r	.	.	138.871	.
.	.	4b-	He	.	.	.
.	.	4a	starts	.	.	.
.	.	4f	to	.	.	.
=84	=84	=84	=84	=84	=84	=84
1Gm	G:min	4d	shake	.	140.577	.
.	.	4.g	and	.	.	.
.	.	4.g	cough	G	.	.
=85	=85	=85	=85	=85	=85	=85
1E-M	E-:maj	4r	.	.	142.282	newline
.	.	4b-	Just	.	.	.
.	.	4a	like	.	.	.
.	.	8f	the	.	.	.
.	.	8r	.	.	.	.
=86	=86	=86	=86	=86	=86	=86
1E-M	E-:maj	4r	.	.	143.987	.
.	.	4b-	old	.	.	.
.	.	4a	man	.	.	.
.	.	8f	in	.	.	.
.	.	8r	.	.	.	.
=87	=87	=87	=87	=87	=87	=87
1Gm	G:min	4r	.	.	145.691	.
.	.	4b-	that	.	.	.
.	.	4a	book	.	.	.
.	.	4f	by	.	.	.
=88	=88	=88	=88	=88	=88	=88
1Gm	G:min	4d	Na-	.	147.396	.
.	.	8g	-ba-	.	.	.
.	.	4.g	-kov	G	.	.
.	.	4r	.	.	.	.
=89	=89	=89	=89	=89	=89	=89
*>Letter>C	*>Letter>C	*>Letter>C	*>Letter>C	*>Letter>C	*>Letter>C	*>Letter>C
*>Label>Chorus	*>Label>Chorus	*>Label>Chorus	*>Label>Chorus	*>Label>Chorus	*>Label>Chorus	*>Label>Chorus
*D:	*D:	*D:	*	*	*	*
2DM	D:maj	4r	.	.	149.101	newline
.	.	4a	Don't	.	.	.
2AM	A:maj	4a	stand	.	149.958	.
.	.	4r	.	.	.	.
=90	=90	=90	=90	=90	=90	=90
2DM	D:maj	4r	.	.	150.815	.
.	.	4a	Don't	.	.	.
2AM	A:maj	4a	stand	.	151.672	.
.	.	8f#	so	.	.	.
.	.	8r	.	.	.	.
=91	=91	=91	=91	=91	=91	=91
2Bmm	B:min7	4r	.	.	152.529	.
.	.	4a	Don't	.	.	.
2Bmm	B:min7/b7	4a	stand	.	153.386	.
.	.	4f#	so	.	.	.
=92	=92	=92	=92	=92	=92	=92
2DM	D:maj/5	4d	close	.	154.243	.
.	.	8e	to	.	.	.
.	.	4.f#	me	.	.	.
2AM	A:maj	.	.	.	155.1	.
.	.	4r	.	.	.	.
=93	=93	=93	=93	=93	=93	=93
2DM	D:maj	4r	.	.	155.958	newline
.	.	4a	Don't	.	.	.
2AM	A:maj	4a	stand	.	156.81	.
.	.	4r	.	.	.	.
=94	=94	=94	=94	=94	=94	=94
2DM	D:maj	4r	.	.	157.662	.
.	.	4a	Don't	.	.	.
2AM	A:maj	4a	stand	.	158.514	.
.	.	8f#	so	.	.	.
.	.	8r	.	.	.	.
=95	=95	=95	=95	=95	=95	=95
2Bmm	B:min7	4r	.	.	159.367	.
.	.	4a	Don't	.	.	.
2Bmm	B:min7/b7	4a	stand	.	160.219	.
.	.	4f#	so	.	.	.
=96	=96	=96	=96	=96	=96	=96
2DM	D:maj/5	4d	close	.	161.071	.
.	.	8e	to	.	.	.
.	.	4.f#	me	.	.	.
2AM	A:maj	.	.	.	161.924	.
.	.	4r	.	.	.	.
=97	=97	=97	=97	=97	=97	=97
2DM	D:maj/5	1r	.	.	162.776	.
2AM	A:maj	.	.	.	163.628	.
=98	=98	=98	=98	=98	=98	=98
2DM	D:maj/5	1r	.	.	164.48	newline
2AM	A:maj	.	.	.	165.33	.
=99	=99	=99	=99	=99	=99	=99
2DM	D:maj/5	1r	.	.	166.18	.
2AM	A:maj	.	.	.	167.03	.
=100	=100	=100	=100	=100	=100	=100
*>Letter>B	*>Letter>B	*>Letter>B	*>Letter>B	*>Letter>B	*>Letter>B	*>Letter>B
*>Label>Instrumental	*>Label>Instrumental	*>Label>Instrumental	*>Label>Instrumental	*>Label>Instrumental	*>Label>Instrumental	*>Label>Instrumental
1E-M	E-:maj	1r	.	.	167.879	newline
=101	=101	=101	=101	=101	=101	=101
1E-M	E-:maj	1r	.	.	169.577	.
=102	=102	=102	=102	=102	=102	=102
1Gm	G:min	1r	.	.	171.275	.
=103	=103	=103	=103	=103	=103	=103
1Gm	G:min	1r	.	.	172.974	.
=104	=104	=104	=104	=104	=104	=104
1E-M	E-:maj	1r	.	.	174.672	newline
=105	=105	=105	=105	=105	=105	=105
1E-M	E-:maj	1r	.	.	176.385	.
=106	=106	=106	=106	=106	=106	=106
1Gm	G:min	1r	.	.	178.099	.
=107	=107	=107	=107	=107	=107	=107
1Gm	G:min	1r	.	.	179.813	.
=108	=108	=108	=108	=108	=108	=108
1E-M	E-:maj	1r	.	.	181.526	newline
=109	=109	=109	=109	=109	=109	=109
1E-M	E-:maj	1r	.	.	183.226	.
=110	=110	=110	=110	=110	=110	=110
1Gm	G:min	1r	.	.	184.925	.
=111	=111	=111	=111	=111	=111	=111
1Gm	G:min	1r	.	.	186.625	.
=112	=112	=112	=112	=112	=112	=112
1E-M	E-:maj	1r	.	.	188.324	newline
=113	=113	=113	=113	=113	=113	=113
1E-M	E-:maj	1r	.	.	190.023	.
=114	=114	=114	=114	=114	=114	=114
1Gm	G:min	1r	.	.	191.722	.
=115	=115	=115	=115	=115	=115	=115
1Gm	G:min	1r	.	.	193.422	.
=116	=116	=116	=116	=116	=116	=116
*>Letter>C	*>Letter>C	*>Letter>C	*>Letter>C	*>Letter>C	*>Letter>C	*>Letter>C
*>Label>Chorus	*>Label>Chorus	*>Label>Chorus	*>Label>Chorus	*>Label>Chorus	*>Label>Chorus	*>Label>Chorus
*D:	*D:	*D:	*	*	*	*
2DM	D:maj	4r	.	.	195.121	newline
.	.	4a	Don't	.	.	.
2AM	A:maj	4a	stand	.	195.977	.
.	.	4r	.	.	.	.
=117	=117	=117	=117	=117	=117	=117
2DM	D:maj	4r	.	.	196.832	.
.	.	4a	Don't	.	.	.
2AM	A:maj	4a	stand	.	197.688	.
.	.	8f#	so	.	.	.
.	.	8r	.	.	.	.
=118	=118	=118	=118	=118	=118	=118
2Bmm	B:min7	4r	.	.	198.544	.
.	.	4a	Don't	.	.	.
2Bmm	B:min7/b7	4a	stand	.	199.4	.
.	.	4f#	so	.	.	.
=119	=119	=119	=119	=119	=119	=119
2DM	D:maj/5	4d	close	.	200.256	.
.	.	8e	to	.	.	.
.	.	4.f#	me	.	.	.
2AM	A:maj	.	.	.	201.112	.
.	.	4r	.	.	.	.
=120	=120	=120	=120	=120	=120	=120
2DM	D:maj	4r	.	.	201.968	newline
.	.	4a	Don't	.	.	.
2AM	A:maj	4a	stand	.	202.818	.
.	.	4r	.	.	.	.
=121	=121	=121	=121	=121	=121	=121
2DM	D:maj	4r	.	.	203.667	.
.	.	4a	Don't	.	.	.
2AM	A:maj	4a	stand	.	204.517	.
.	.	8f#	so	.	.	.
.	.	8r	.	.	.	.
=122	=122	=122	=122	=122	=122	=122
2Bmm	B:min7	4r	.	.	205.366	.
.	.	4a	Don't	.	.	.
2Bmm	B:min7/b7	4a	stand	.	206.216	.
.	.	4f#	so	.	.	.
=123	=123	=123	=123	=123	=123	=123
2DM	D:maj/5	4d	close	.	207.065	.
.	.	8e	to	.	.	.
.	.	4.f#	me	.	.	.
2AM	A:maj	.	.	.	207.915	.
.	.	4r	.	.	.	.
=124	=124	=124	=124	=124	=124	=124
2DM	D:maj	4r	.	.	208.764	newline
.	.	4a	Don't	.	.	.
2AM	A:maj	4a	stand	.	209.622	.
.	.	4r	.	.	.	.
=125	=125	=125	=125	=125	=125	=125
2DM	D:maj	4r	.	.	210.479	.
.	.	4a	Don't	.	.	.
2AM	A:maj	4a	stand	.	211.337	.
.	.	8f#	so	.	.	.
.	.	8r	.	.	.	.
=126	=126	=126	=126	=126	=126	=126
2Bmm	B:min7	4r	.	.	212.194	.
.	.	4a	Don't	.	.	.
2Bmm	B:min7/b7	4a	stand	.	213.052	.
.	.	4f#	so	.	.	.
=127	=127	=127	=127	=127	=127	=127
2DM	D:maj/5	4d	close	.	213.909	.
.	.	8e	to	.	.	.
.	.	4.f#	me	.	.	.
2AM	A:maj	.	.	.	214.767	.
.	.	4r	.	.	.	.
=128	=128	=128	=128	=128	=128	=128
*>Label>>Fadeout	*>Label>>Fadeout	*>Label>>Fadeout	*>Label>>Fadeout	*>Label>>Fadeout	*>Label>>Fadeout	*>Label>>Fadeout
2DM	D:maj	4r	.	.	215.624	newline
.	.	4a	Don't	.	.	.
2AM	A:maj	4a	stand	.	216.477	.
.	.	4r	.	.	.	.
=129	=129	=129	=129	=129	=129	=129
2DM	D:maj	4r	.	.	217.33	.
.	.	4a	Don't	.	.	.
2AM	A:maj	4a	stand	.	218.183	.
.	.	8f#	so	.	.	.
.	.	8r	.	.	.	.
=130	=130	=130	=130	=130	=130	=130
2Bmm	B:min7	4r	.	.	219.036	.
.	.	4a	Don't	.	.	.
2Bmm	B:min7/b7	4a	stand	.	219.889	.
.	.	4f#	so	.	.	.
=131	=131	=131	=131	=131	=131	=131
2DM	D:maj/5	4d	close	.	220.742	.
.	.	8e	to	.	.	.
.	.	4.f#	me	.	.	.
2AM	A:maj	.	.	.	221.595	.
.	.	4r	.	.	.	.
=132	=132	=132	=132	=132	=132	=132
2DM	D:maj	4r	.	.	222.448	newline
.	.	4a	Don't	.	.	.
2AM	A:maj	4a	stand	.	223.297	.
.	.	4r	.	.	.	.
=133	=133	=133	=133	=133	=133	=133
2DM	D:maj	4r	.	.	224.146	.
.	.	4a	Don't	.	.	.
2AM	A:maj	4a	stand	.	224.995	.
.	.	8f#	so	.	.	.
.	.	8r	.	.	.	.
=134	=134	=134	=134	=134	=134	=134
2Bmm	B:min7	4r	.	.	225.844	.
.	.	4a	Don't	.	.	.
2Bmm	B:min7/b7	4a	stand	.	226.692	.
.	.	4f#	so	.	.	.
=135	=135	=135	=135	=135	=135	=135
2DM	D:maj/5	4d	close	.	227.541	.
.	.	8e	to	.	.	.
.	.	4.f#	me	.	.	.
2AM	A:maj	.	.	.	228.39	.
.	.	4r	.	.	.	.
=136	=136	=136	=136	=136	=136	=136
2DM	D:maj	4r	.	.	229.239	newline
.	.	4a	Don't	.	.	.
2AM	A:maj	4a	stand	.	230.053	.
.	.	4r	.	.	.	.
=137	=137	=137	=137	=137	=137	=137
2DM	D:maj	4r	.	.	230.867	.
.	.	4a	Don't	.	.	.
2AM	A:maj	4a	stand	.	231.681	.
.	.	8f#	so	.	.	.
.	.	8r	.	.	.	.
=138	=138	=138	=138	=138	=138	=138
2Bmm	B:min7	4r	.	.	232.495	.
.	.	4a	Don't	.	.	.
2Bmm	B:min7/b7	4a	stand	.	233.308	.
.	.	4f#	so	.	.	.
=139	=139	=139	=139	=139	=139	=139
2DM	D:maj/5	4d	close	.	234.122	.
.	.	8e	to	.	.	.
.	.	4.f#	me	.	.	.
2AM	A:maj	.	.	.	234.936	.
.	.	4r	.	.	.	.
=140	=140	=140	=140	=140	=140	=140
2DM	D:maj	1r	.	.	235.75	.
2AM	A:maj	.	.	.	236.564	.
1r;	1r	r;	.	.	237.378	.
1r;	1r	r;	.	.	243.096	.
*-	*-	*-	*-	*-	*-	*-
!!!BillboardChartDate: 1981/03/21, 1981/04/04
!!!BillboardPeak: 10, 10
!!!BillboardWeeksOnChart: 18, 18
!!!COC: The Police
!!!ENC: Nathaniel Condit-Schultz
!!!EST: Awating manual error checking and editing.
!!!OTL: Don't Stand So Close To Me
!!!RDF**chordsym: original McGill chord annotation + (implied pitch class set, with bass pitch in first position)
!!!RDF**harmony: **recip + pitch class of root + harmonic quality
!!!RDF**leadinstrument: original McGill primary instrumentation annotation
!!!RDF**phrase: newline = linebreak in original McGill transcription
!!!RDF**timestamp: McGill audio timestamp in seconds
!!!RDT: 2017/01/12/
!!!SampleActualRank: 15, 12
!!!SampleID#: 492, 881
!!!SampleTargetRank: 14, 11
!!!MBID: 1f6a3ea0-70af-49d4-baf9-af6373c1c921
